X: 1804
T: the Green Flag Flying   #2
R: reel
%S: s:2 b:11(5+6)
B: O'Neill's 1850 #1804
O: F.O'Neill
Z: Bob Safranek, rjs@gsp.org
N: Compacted via repeats and multiple endings [JC]
M: 2/4
L: 1/16
K: G
"^A"|: GE | D2DE G2GB | A2GA BAGE | D2c2 BcdB |1,3 G3A BA :|2,4 G4 G2 :|
"^B"|: A2 |: B2d2 efge |1 d2B2 A2G2 :|2 d3B A3A :|3 d3B  A2GE | DEGA BGAF | G4 G2 :|
